src/svgs/pipes.svg

<svg xmlns="http://www.w3.org/2000/svg" viewBox="0 0 24 24" width="512" height="512" aria-labelledby="ispipes-desc ispipes-title"><title id="ispipes-title">Pipes Icon</title><desc id="ispipes-desc">A picture depicting pipes.</desc><path d="M8 13v8H4v-8zm2-10v1H7a3 3 0 00-3 3v3H3v2h6v-2H8V9a1 1 0 011-1h1v1h2V3zm3 1v4h8V4z"/></svg>

<svg xmlns="http://www.w3.org/2000/svg" viewBox="0 0 24 24"><path d="M8,13v8H4V13ZM10,3V4H7A3,3,0,0,0,4,7v3H3v2H9V10H8V9A1,1,0,0,1,9,8h1V9h2V3Zm3,1V8h8V4Z"/></svg>
